X:131
T:Ferry March. JGi.131
M:2/4
L:1/8
Q:1/4=110
S:Joshua Gibbons MS,1823,Tealby,Lincs.
R:march
O:Tealby,Lincolnshire
Z:VMP/R.Greig, 2009
K:D
A|dd ff|a2f2|gg ff|(e/d/).e/.f/ eA|dd ff|a2f2|ee ac|d2:|
|:f|.e.f.g.f|.e.f.g.f|.e.f.g.f|e3e|f2^g2|a2(g/f/).e/.d/|c2B2|A2:|

